packages/icons/svg/Media_ReduceScreen_24px.svg

<svg xmlns="http://www.w3.org/2000/svg" viewBox="0 0 24 24"><path d="M7 2a1 1 0 00-1 1v3H3a1 1 0 000 2h4a1 1 0 001-1V3a1 1 0 00-1-1zM21 16h-4a1 1 0 00-1 1v4a1 1 0 002 0v-3h3a1 1 0 000-2zM17 8h4a1 1 0 000-2h-3V3a1 1 0 00-2 0v4a1 1 0 001 1zM7 16H3a1 1 0 000 2h3v3a1 1 0 002 0v-4a1 1 0 00-1-1zM14 9h-4a1 1 0 00-1 1v4a1 1 0 001 1h4a1 1 0 001-1v-4a1 1 0 00-1-1zm-1 4h-2v-2h2z"/></svg>

<svg xmlns="http://www.w3.org/2000/svg" viewBox="0 0 24 24"><defs></defs><g id="Icon"><g id="Name-2" ><path  d="M7,2A1,1,0,0,0,6,3V6H3A1,1,0,0,0,3,8H7A1,1,0,0,0,8,7V3A1,1,0,0,0,7,2Z"/><path  d="M21,16H17a1,1,0,0,0-1,1v4a1,1,0,0,0,2,0V18h3a1,1,0,0,0,0-2Z"/><path  d="M17,8h4a1,1,0,0,0,0-2H18V3a1,1,0,0,0-2,0V7A1,1,0,0,0,17,8Z"/><path  d="M7,16H3a1,1,0,0,0,0,2H6v3a1,1,0,0,0,2,0V17A1,1,0,0,0,7,16Z"/><path  d="M14,9H10a1,1,0,0,0-1,1v4a1,1,0,0,0,1,1h4a1,1,0,0,0,1-1V10A1,1,0,0,0,14,9Zm-1,4H11V11h2Z"/></g></g></svg>
